hospital-box-outline.svg

<svg fill="currentColor" viewBox="0 0 24 24"><path d="M18 14h-4v4h-4v-4H6v-4h4V6h4v4h4m2-8H4c-1.1 0-2 .9-2 2v16c0 1.1.9 2 2 2h16c1.1 0 2-.9 2-2V4c0-1.1-.9-2-2-2m0 18H4V4h16z"/></svg>

<svg  viewBox="0 0 24 24" fill="currentColor"><path  d="M18 14H14V18H10V14H6V10H10V6H14V10H18M20 2H4C2.9 2 2 2.9 2 4V20C2 21.1 2.9 22 4 22H20C21.1 22 22 21.1 22 20V4C22 2.9 21.1 2 20 2M20 20H4V4H20V20Z"/></svg>
